X: 31477
T: Paddy The Bat, Mind Where You're At
R: polka
M: 2/4
K: Amajor
|:ce AB|ce A2|BB AB|cd e2|
ce AB|ce A2|BB cB|A2 A2:|
|:aa ff|aa c2|BB AB|cd e2|
aa ff|aa c2|BB cB|A2 A2:|

